FINK
CUT[O SEHET DOCH WIE FEIN UND HOLD]
REG[Europa, Mitteleuropa, Deutschland]
KEY[F0269  16  D 6/8]
MEL[5_  +1__+1_5__5_  3__4_5__
    3_  6__5_5_4_3_  3__.2__
    5_  +1__+1_5__5_  3__4_5__
    5_  5_4#_4#_+1_6_4_  6__.5__
    5_  6__3_2__3_  4__5_4__
    2_  7_.67_+1__3_  2__5_1__ //] >>
FCT[Jugend - Lied, Belehrung, religioes]
